svgs/sharp-solid/hand-back-point-left.svg

<svg xmlns="http://www.w3.org/2000/svg" viewBox="0 0 512 512"><!--! Font Awesome Pro 6.3.0 by @fontawesome - https://fontawesome.com License - https://fontawesome.com/license (Commercial License) Copyright 2023 Fonticons, Inc. --><path d="M0 224l0-80 224 0 13.3 0 2.7 0 80 0 16 0 0-32-16 0-56 0 40-48 68 0c38 0 74 16.9 98.3 46.1l4.5 5.4c24 28.8 37.1 65 37.1 102.4L512 336c0 70.7-57.3 128-128 128l-16 0-48 0-80 0 0-80-32 0 0-80-32 0 0-80L0 224z"/></svg>

<svg xmlns="http://www.w3.org/2000/svg" viewBox="0 0 512 512"><!--! Font Awesome Pro 6.2.0 by @fontawesome - https://fontawesome.com License - https://fontawesome.com/license (Commercial License) Copyright 2022 Fonticons, Inc. --><path d="M0 224l0-80 224 0h13.3H240h80 16V112H320 264l40-48h68c38 0 74 16.9 98.3 46.1l4.5 5.4c24 28.8 37.1 65 37.1 102.4V336c0 70.7-57.3 128-128 128H368 320 240l0-80H208V304H176V224H0z"/></svg>
